X:1
T:Title
%%score { ( 1 2 ) | 3 }
L:1/8
Q:1/4=108
M:3/4
K:Ab
V:1 treble nm="Grand Piano"
V:2 treble 
V:3 bass 
V:1
 CC C2 [Ec]2 | A-[DA-] [CA]2 [CE]2 | z D D2 [Fd]2 | c-[Ec-] [Ec]2 z2 | e4 z2 | c4 z2 | B4 z2 | %7
w: J.~H.~Ruebush * * *|||||||
 B4 z2 | CC C2 [Ec]2 | A-[CA-] [CA]2 [CE]2 | z D D2 [Fd]2 | c-[Ec-] [Ec]2 z2 | %12
w: |||||
 c-[Ec-] [Ec]2 [_Ge]2 | d-[Fd-] [Fd]2 [FB]2 | A4 z2 | A4 z2 | c4 z2 | c4 z2 | A4 z2 | c4 z2 | %20
w: ||||||||
 c4 z2 | d4 z2 | A4 z2 | A4 z2 |] %24
w: ||||
V:2
 E4 z2 | .C2 z2 z2 | F4 z2 | .E2 z2 z2 | z A .A2 c2 | AA .A2 A2 | GG G2 [Ac]2 | GG G2 z2 | E4 z2 | %9
 .C2 z2 z2 | F4 z2 | .E2 z2 z2 | .E2 z2 z2 | .F2 z2 z2 | z E E2 G2 | CD C2 z2 | z F F2 [Af]2 | %17
 AA F2 [=EB]2 | z F F2 [FB]2 | =EE E2 z2 | EE E2 [_Ge]2 | FF F2 [FB]2 | z E E2 G2 | CD C2 z2 |] %24
V:3
 [A,,A,][A,,A,] [A,,A,]2 [A,,A,]2 | [A,,E,][A,,F,] [A,,E,]2 [A,,A,]2 | %2
 [D,A,D][D,A,] [D,A,]2 [D,A,]2 | [A,,A,][A,,A,] [A,,A,]2 z2 | [A,CA][A,C] [A,C]2 [A,A]2 | %5
 [F,C][F,C] [F,C]2 [F,CF]2 | [E,E][E,E] [E,E]2 [E,E]2 | [E,E][E,E] [E,E]2 z2 | %8
 [A,,A,][A,,A,] [A,,A,]2 [A,,A,]2 | [A,,E,][A,,E,] [A,,E,]2 [A,,A,]2 | %10
 [D,A,D][D,A,] [D,A,]2 [D,A,]2 | [A,,A,][A,,A,] [A,,A,]2 z2 | [A,,A,][A,,A,] [A,,A,]2 [C,A,]2 | %13
 [D,A,][D,A,] [D,A,]2 [D,A,]2 | [E,CE][E,C] [E,C]2 [E,B,E]2 | [A,,A,][A,,F,] [A,,E,]2 z2 | %16
 [F,A,F][F,A,] [F,A,]2 [F,C]2 | [F,A,][F,A,] [F,A,]2 [C,C]2 | [F,CF][F,C] [F,C]2 [D,F,]2 | %19
 [C,G,][C,G,] [C,G,]2 z2 | [A,,A,][A,,A,] [A,,A,]2 [C,A,]2 | [D,A,][D,A,] [D,A,]2 [D,D]2 | %22
 [E,CE][E,C] [E,C]2 [E,B,D]2 | [A,,A,][A,,F,] [A,,E,]2 z2 |] %24

